X:1216
T:Trarira, der Sommertag ist da!
C:anon.
O:Germany
A:Pfalz
Z:Transcribed by Frank Nordberg - http://www.musicaviva.com
F:http://abc.musicaviva.com/tunes/germany/trarira-1.abc
M:2/4
L:1/8
K:G
"G"G2B2|"D"A2 z D|"D7"ED EF|"G"G2 z d|
w:Tra-ri-ra, der Som-mer-tag ist da! Wir
"G"cB AG|"D7"(FA) Dd|"G"cB AG|"D7"(FA) D2|
w:wol-len in den Gar--ten und wolln des Som-mers war--ten.
"G"G2B2|"G"d2 z c|"G"Bd "D7"cA|"G"G2 z2|]
w:Ja, ja, ja, der Som-mer-tag ist da.
W:
W:Trarira, der Sommerag ist da!
W:Wir wollen in den Garten
W:und wolln des Sommers warten.
W:Ja, ja, ja, der Sommertag ist da!
W:
W:Trarira, der Sommertag ist da!
W:Wir wollen an die Hecken
W:und wolln der Sommer wecken.
W:Ja, ja, ja, der Sommertag ist da!
W:
W:Trarira, der Sommertag ist da!
W:Der Sommer hat gewonnen,
W:der Winter hat verloren.
W:Ja, ja, ja, der Sommertag ist da!
W:
W:
W:  From Musica Viva - http://www.musicaviva.com
W:  the Internet center for free sheet music downloads.

